src/symbolic/places/folder-visiting-symbolic.svg

<svg width="16" height="16" version="1.1" xmlns="http://www.w3.org/2000/svg">
 <path class="ColorScheme-Text" d="m2.5 2c-0.831 0-1.5 0.669-1.5 1.5v8.5c0 1.108 0.892 2 2 2h10c1.108 0 2-0.892 2-2v-6c0-1.108-0.892-2-2-2h-5l-2-2zm0.5 4h10v6h-10z" color="#555555" fill="currentColor"/>
 <path d="m8.5371 5.3945-6.5371 1.752v1.0352l10.346-2.7715c-0.1124-0.0097305-0.22757-0.015625-0.3457-0.015625zm5.3086 0.61133-11.846 3.1738v1.0352l12-3.2148v-0.60547c0-0.13767-0.054508-0.26953-0.1543-0.38867zm0.1543 1.957-12 3.2168v1.0352l12-3.2148zm0 2-11.514 3.0859c0.36619 0.21174 0.90733 0.3457 1.5137 0.3457h1.0645l8.9355-2.3945z" fill="#555555" stroke-linecap="round" stroke-linejoin="round" stroke-width="2" style="paint-order:fill markers stroke"/>
</svg>

<svg width="16" height="16" xmlns="http://www.w3.org/2000/svg"><path class="ColorScheme-Text" d="M2.5 2C1.669 2 1 2.669 1 3.5V12c0 1.108.892 2 2 2h10c1.108 0 2-.892 2-2V6c0-1.108-.892-2-2-2H8L6 2zM3 6h10v6H3z" color="#555" fill="currentColor"/><path d="M8.537 5.394 2 7.146v1.036L12.346 5.41A4.001 4.001 0 0 0 12 5.395zm5.309.612L2 9.18v1.035L14 7v-.605a.603.603 0 0 0-.155-.39zM14 7.963 2 11.18v1.035L14 9zm0 2L2.486 13.049c.366.211.907.345 1.514.345h1.064L14 11z" fill="#555" style="paint-order:fill markers stroke"/></svg>
